img/icons/facebook.svg

<svg width="67" height="67" viewBox="0 0 67 67" fill="none" xmlns="http://www.w3.org/2000/svg">
<path d="M0 0V67H35.6816V41.1193H26.9591V30.5541H35.6816V21.6812C35.6816 15.2282 40.9127 9.997 47.3657 9.997H56.4845V19.4975H49.9596C47.9091 19.4975 46.2468 21.1598 46.2468 23.2103V30.5542H56.3205L54.9283 41.1194H46.2468V67H67V0H0Z" fill="#3E63A7"/>
</svg>

<svg width="67" height="67" fill="none" xmlns="http://www.w3.org/2000/svg"><path d="M0 0v67h35.682V41.12h-8.723V30.553h8.723V21.68c0-6.453 5.23-11.684 11.684-11.684h9.118v9.5H49.96a3.713 3.713 0 00-3.713 3.713v7.344H56.32L54.928 41.12h-8.681V67H67V0H0z" fill="#3E63A7"/></svg>
